svg/part/deer_fill.svg

<?xml version="1.0" encoding="UTF-8"?>
<svg width="24px" height="24px" viewBox="0 0 24 24" version="1.1" xmlns="http://www.w3.org/2000/svg" xmlns:xlink="http://www.w3.org/1999/xlink">
    <title>deer_fill</title>
    <g id="Icon" stroke="none" stroke-width="1" fill="none" fill-rule="evenodd">
        <g id="Part" transform="translate(0.000000, -240.000000)" fill-rule="nonzero">
            <g id="deer_fill" transform="translate(0.000000, 240.000000)">
                <path d="M24,0 L24,24 L0,24 L0,0 L24,0 Z M12.5935,23.2578 L12.5819,23.2595 L12.5109,23.295 L12.4919,23.2987 L12.4767,23.295 L12.4057,23.2595 C12.3958,23.2564 12.387,23.259 12.3821,23.2649 L12.378,23.2758 L12.3609,23.7031 L12.3659,23.7235 L12.3769,23.7357 L12.4805,23.8097 L12.4953,23.8136 L12.5071,23.8097 L12.6107,23.7357 L12.6233,23.7197 L12.6267,23.7031 L12.6096,23.2758 C12.6076,23.2657 12.601,23.2593 12.5935,23.2578 Z M12.8584,23.1453 L12.8445,23.1473 L12.6598,23.2397 L12.6499,23.2499 L12.6472,23.2611 L12.6651,23.6906 L12.6699,23.7034 L12.6784,23.7105 L12.8793,23.8032 C12.8914,23.8069 12.9022,23.803 12.9078,23.7952 L12.9118,23.7812 L12.8777,23.1665 C12.8753,23.1546 12.8674,23.147 12.8584,23.1453 Z M12.143,23.1473 C12.1332,23.1424 12.1222,23.1453 12.1156,23.1526 L12.1099,23.1665 L12.0758,23.7812 C12.0751,23.7927 12.0828,23.8019 12.0926,23.8046 L12.1083,23.8032 L12.3092,23.7105 L12.3186,23.7024 L12.3225,23.6906 L12.3404,23.2611 L12.3372,23.2485 L12.3278,23.2397 L12.143,23.1473 Z" id="MingCute"></path>
                <path d="M4,2.5 C4.82843,2.5 5.5,3.17157 5.5,4 C5.5,4.63927 5.70583,5.3378 6.06687,6.04861 C6.30155,5.66932 6.58818,5.2905 6.93934,4.93934 C7.52513,4.35355 8.47487,4.35355 9.06066,4.93934 C9.64645,5.52513 9.64645,6.47487 9.06066,7.06066 C8.57278,7.54854 8.30147,8.17904 8.12418,8.74861 C8.3219,8.94018 8.51431,9.11349 8.69478,9.2657 C9.69191,8.77538 10.8138,8.5 12,8.5 C13.1862,8.5 14.3081,8.77538 15.3052,9.2657 C15.4857,9.11349 15.6781,8.94018 15.8758,8.74861 C15.6985,8.17904 15.4272,7.54854 14.9393,7.06066 C14.3536,6.47487 14.3536,5.52513 14.9393,4.93934 C15.5251,4.35355 16.4749,4.35355 17.0607,4.93934 C17.4118,5.2905 17.6985,5.66932 17.9331,6.04862 C18.2942,5.3378 18.5,4.63927 18.5,4 C18.5,3.17157 19.1716,2.5 20,2.5 C20.8284,2.5 21.5,3.17157 21.5,4 C21.5,5.97152 20.5328,7.78965 19.5125,9.15 C18.9455,9.906 18.3148,10.5837 17.7128,11.1404 C18.8274,12.4493 19.5,14.1461 19.5,16 C19.5,17.9199 18.7766,19.6745 17.5899,21.0004 C17.0374,21.6177 16.0891,21.6702 15.4718,21.1177 C14.8546,20.5652 14.802,19.6169 15.3545,18.9996 C16.068,18.2025 16.5,17.1535 16.5,16 C16.5,13.5147 14.4853,11.5 12,11.5 C9.51472,11.5 7.5,13.5147 7.5,16 C7.5,17.1535 7.93204,18.2025 8.64549,18.9996 C9.19798,19.6169 9.14545,20.5652 8.52816,21.1177 C7.91087,21.6702 6.96257,21.6177 6.41008,21.0004 C5.22338,19.6745 4.5,17.9199 4.5,16 C4.5,14.1461 5.17264,12.4493 6.28719,11.1404 C5.68523,10.5837 5.0545,9.906 4.4875,9.15 C3.46724,7.78965 2.5,5.97152 2.5,4 C2.5,3.17157 3.17157,2.5 4,2.5 Z" id="路径" fill="#09244B"></path>
            </g>
        </g>
    </g>
</svg>

<svg xmlns="http://www.w3.org/2000/svg" width="24" height="24"><g fill="none" fill-rule="nonzero"><path d="M24 0v24H0V0h24ZM12.594 23.258l-.012.002-.071.035-.02.004-.014-.004-.071-.036c-.01-.003-.019 0-.024.006l-.004.01-.017.428.005.02.01.013.104.074.015.004.012-.004.104-.074.012-.016.004-.017-.017-.427c-.002-.01-.009-.017-.016-.018Zm.264-.113-.014.002-.184.093-.01.01-.003.011.018.43.005.012.008.008.201.092c.012.004.023 0 .029-.008l.004-.014-.034-.614c-.003-.012-.01-.02-.02-.022Zm-.715.002a.023.023 0 0 0-.027.006l-.006.014-.034.614c0 .012.007.02.017.024l.015-.002.201-.093.01-.008.003-.011.018-.43-.003-.012-.01-.01-.184-.092Z"/><path fill="#09244B" d="M4 2.5A1.5 1.5 0 0 1 5.5 4c0 .64.206 1.338.567 2.049a6.11 6.11 0 0 1 .872-1.11 1.5 1.5 0 1 1 2.122 2.122c-.488.488-.76 1.118-.937 1.688.198.191.39.364.57.517A7.47 7.47 0 0 1 12 8.5a7.47 7.47 0 0 1 3.305.766c.18-.153.373-.326.57-.517-.177-.57-.448-1.2-.936-1.688a1.5 1.5 0 0 1 2.122-2.122c.35.351.637.73.872 1.11.361-.711.567-1.41.567-2.049a1.5 1.5 0 0 1 3 0c0 1.972-.967 3.79-1.988 5.15a15.048 15.048 0 0 1-1.8 1.99A7.47 7.47 0 0 1 19.5 16c0 1.92-.723 3.674-1.91 5a1.5 1.5 0 1 1-2.235-2 4.5 4.5 0 1 0-6.709 0 1.5 1.5 0 0 1-2.236 2 7.478 7.478 0 0 1-1.91-5 7.47 7.47 0 0 1 1.787-4.86 15.05 15.05 0 0 1-1.8-1.99C3.468 7.79 2.5 5.972 2.5 4A1.5 1.5 0 0 1 4 2.5Z"/></g></svg>
